X: 2008
T: Mrs FORBES
R: Reel.
%R: reel
B: James Kerr "Merry Melodies" v.2 p.4 #8
Z: 2016 John Chambers <jc:trillian.mit.edu>
M: C
L: 1/8
K: A
|:\
vA/A/A (AF) E2(EF) | A/A/A (Ac) dBBc |\
A/A/A (AF) E2(EF) | A2(Bd) cAAc ::\
efec (ef)a2 | efec fBBc |\
efec efaf | ecdB cAAc :|
